@extra/phlat-icons/symbolic-24/uget-tray-error.svg

<svg xmlns="http://www.w3.org/2000/svg" version="1.0" viewBox="-4 -4 24 24"><path fill="#f1f2f2" d="m6 2c-2 0-2 0-2 2v6h-1v-4h-2v5c0 1 0 1 1 1h2c0 2 0 2 2 2h2.2637a4.5 4.5 0 0 1 -0.2637 -1.5 4.5 4.5 0 0 1 0.2637 -1.5h-1.2637v-6h8v-3h-9zm5 5v1.2637a4.5 4.5 0 0 1 1.5 -0.2637 4.5 4.5 0 0 1 2.5 0.7598v-0.7598c0-1 0-1-1-1h-3z"/><path style="color:#f1f2f2" d="m12.5 9a3.5 3.5 0 1 0 0 7 3.5 3.5 0 0 0 0 -7zm-2.5 2.969h5v1.031h-5z" class="error" overflow="visible" fill="#c00"/></svg>

<svg xmlns="http://www.w3.org/2000/svg" version="1" viewBox="-4 -4 24 24">
    <path fill="#f1f2f2" d="M6 2C4 2 4 2 4 4v6H3V6H1v5c0 1 0 1 1 1h2c0 2 0 2 2 2h2.264A4.5 4.5 0 0 1 8 12.5a4.5 4.5 0 0 1 .264-1.5H7V5h8V2H6zm5 5v1.264A4.5 4.5 0 0 1 12.5 8a4.5 4.5 0 0 1 2.5.76V8c0-1 0-1-1-1h-3z"/>
    <path d="M12.5 9a3.5 3.5 0 1 0 0 7 3.5 3.5 0 0 0 0-7zM10 11.969h5V13h-5z" class="error" overflow="visible" fill="#c00" color="#f1f2f2"/>
</svg>
